X:308
T: Der Narrentanz
N: A0357
O: Europa, Mitteleuropa, Deutschland
N: Pet. Schoeffer II 1537  No. 38.
R: Romanze, Ballade, Lied
M: 6/2
L: 1/2
K: G
G | G2G2AB | c2cc2
c | A2A2Bc | d2dd2
d | =f2f2ec | d2dA2
B | cA2G2G | c2ed2c | B2c2A2 | G4z

@@@ Tune index: 308
